!!!COM: Music21
!!!OTL: Muiñeira de Vilar do Caurel
!!!OMV: pezas_muineiras_muineira-do-vilar-do-caurel_muineira-do-vilar-do-caurel-partitura.musicxml
**kern
*I"Bagpipes
*I'Bag
*clefG^2
*k[]
*M6/8
=1
!LO:TX:a:t=Presto
*MM180
!LO:TX:a:t=[quarter]=180
4.r
8ggL
8aa
8ggJ
=||
4ee
8ee^
8ffL
8ee
8ffJ
=
16%3ggL
16%3gg^J
8gg^L
8aa
8ggJ
=
4ee
8ee^
8ffL
8ee
8ffJ
=
2gg
8gg^L
8aaJ
=
4bb
8gg
4aa
8ff
=
4gg
[8ee
8eeL]
8aa
8ggJ
!!linebreak:original
=
8ffL
8ee
8ffJ
8ggL
8aa
8ggJ
=
4.ee
8ggL
8aa
8ggJ
=||
4ee
8ee^
8ffL
8ee
8ffJ
=
16%3ggL
16%3gg^J
8gg^L
8aa
8ggJ
=
4ee
8ee^
8ffL
8ee
8ffJ
=
2gg
8gg^L
8aaJ
=
4bb
8gg
4aa
8ff
!!linebreak:original
=
4gg
[8ee
8eeL]
8aa
8ggJ
=
8ffL
8ee
8ffJ
8ggL
8aa
8bbJ
=
4.ccc
4cc^
8dd
=||
4ee
8ee~
8ee^L
8ff
8eeJ
=
16%3ddL
16%3dd~J
4dd^
8ee
=
16%3ffL
16%3ff^J
8ff^L
8gg
8ffJ
!!linebreak:original
=
16%3eeL
[16%3ccJ
8ccL]
8gg
8aaJ
=
4bb
8bb~
4bb^
8bb~
=
16%3bb^L
16%3aaJ
8ffL
8gg
8aaJ
=
4bb
16cccLL
16bbJJ
8aaL
8gg
8ffJ
=
4.ee
8ggL
8aa
8ggJ
=||
4ee
8ee~
8ee^L
8ff
8eeJ
=
16%3ddL
16%3dd~J
4dd^
8ee
!!linebreak:original
=
16%3ffL
16%3ff^J
8ff^L
8gg
8ffJ
!!linebreak:original
=
16%3eeL
[16%3ccJ
8ccL]
8gg
8aaJ
=
4bb
8bb~
4bb^
8bb~
=
16%3bb^L
16%3aaJ
8ffL
8gg
8aaJ
=
4bb
16cccLL
16bbJJ
8aaL
8gg
8ffJ
=
2ee
8cccL
8bbJ
=||
8aaL
8aa^
8aa~J
8aa^L
8bb
8aaJ
!!linebreak:original
=
8ggL
8gg^
8gg~J
8gg^L
8aa
8ggJ
=
8ffL
8ff^
8ff~J
8ff^L
8ee
8ffJ
=
4aa
[8gg
8ggL]
8ccc
8bbJ
=
8aaL
8aa^
8aa~J
8aa^L
8bb
8aaJ
=
8ggL
8gg^
8gg~J
8gg^L
8aa
8ggJ
=
8ffL
8ff^
8ff~J
8ff^L
8gg
8ffJ
=
2ee
8cccL
8bbJ
!!linebreak:original
=||
8aaL
8aa^
8aa~J
8aa^L
8bb
8aaJ
!!linebreak:original
=
8ggL
8gg^
8gg~J
8gg^L
8aa
8ggJ
=
8ffL
8ff^
8ff~J
8ff^L
8ee
8ffJ
=
4aa
[8gg
8ggL]
8ccc
8bbJ
=
8aaL
8aa^
8aa~J
8aa^L
8bb
8aaJ
=
8ggL
8gg^
8gg~J
8gg^L
8aa
8ggJ
!!linebreak:original
=
8ffL
8ff^
8ff~J
8ff^L
8gg
8ffJ
=||
4.ee
8ggL
8aa
8ggJ
=||
2ee
4r
==
*-
